X: 48
T: POLKAS: Weaver's Delight Set
T: Weaver's Delight
C: C: Trad.; S: Denis Murphy / Julia & Billy Clifford / Denis Murphy & Johnny O'Leary
C: Set Leaders: Olya, Anton
Z: Anton Zille ed., Oleg Naumov arr.; Bregolas at The Session
N: https://thesession.org/members/26966/sets/71310
R: Polka
M: 2/4
L: 1/8
Q: 1/4=140
K: Dmaj
|:AG|"D"FG/F/ ED|"D"dc/d/ "D/F#"e>d|"G"cA AF|"A"G2 AG|
"D"FG/F/ ED|"D"dc/d/ "D/F#"e/f/e/d/|"G"cA Bd|1 "A"A2:|2 "A"A2 Af/g/||
|:"D"a>f ge|"D"fd "D/F#"e>d|"G"cd ef|"A"g2 gf/g/|
"D (Bm)"a>f ge|"D (Bm)"fd "(A)"e/f/e/d/|"G"cA Bd|1 "A"A2 Af/g/:|2 "A"AB AG||
T: Bridgie Con Matt's
K: Gmaj
|:"G"GB BA/c/|"G"BG G>D|"C"GB B/c/d/B/|"D"AD FA|
"G"GB BA/c/|"G"BG G/A/B/c/|"C"dd B/c/d/B/|"D"AD FA :||
|:"Em"Be ef/e/|d/e/f/a/ g2|"C"Be ed/B/|"D"AD FA |
"Em"Be ef/e/|"D/F#"d/e/f/a/ g2|"G"g/a/g/e/ "C"d/e/d/B/|"D"AD "(D/F#)"FA :||
T: Denis Murphy's
K: Dmaj
|:"D"f/g/f/e/ d/c/d/B/|"D"AD FA/F/|"G"GE e>d|"A"cB cA|
"D"f/g/f/e/ d/c/d/B/|"D"AD FA/F/|"G"GE "A"e>g|1 "D"fd d2:|2 "D"fd d>B||
|:"D"Af f/e/f|"G"Ag g/f/g|"D"Af f/e/f|"G"e/f/e/d/ "A"BA|
"D"Af f/e/f|"G"Ag g>a|"A"ba f/a/a/f/|1 "D"ed d>B:|2 "D"ed d2||

